X: 19656
T: Jehovah's Witness, The
R: jig
M: 6/8
K: Gmajor
gdB eBA|BGF ~G3|EFG AdB|BAG ~A3|
gdB eBA|BGF ~G3|ABG AFG|GEF ~G3:|
GBG dGB|gBg gdB|ABA dAf|fdA fdA|GBG dGB|
gBg gdB|1 ABd ~f3|ed^c ~d3:|2 ABG AFG|GEF ~G3||

